X: 33861
T: Reculver, The
R: polka
M: 2/4
K: Amajor
DE FG|:A2 AG|AE CE|DB, B,C|DE FG|
A2 AG|AE CE|DF EC|A,B, CE:|
|:AA/A/ AB|c2 Ac|BB/B/ Bc|d2 Bd|
cc/c/ cd|e2 ce|dB GB|AE FG:|

